!!!COM: Palestrina, Giovanni Perluigi da
!!!OPR: Je suis desheritee
!!!OTL: Gloria
**kern	**kern	**kern	**kern
*Ibass	*Itenor	*Icalto	*Icant
!Bassus	!Tenor	!Altus	!Cantus
*clefF4	*clefGv2	*clefG2	*clefG2
*k[b-]	*k[b-]	*k[b-]	*k[b-]
*D:aeo	*D:aeo	*D:aeo	*D:aeo
*M4/2	*M4/2	*M4/2	*M4/2
=1	=1	=1	=1
2.D	2.d	1r	0r
4D	4d	.	.
2D	2d	2.a	.
2D	2d	.	.
.	.	4a	.
=2	=2	=2	=2
2F	2c	2a	0r
2F	2c	2a	.
2G	2B-	2g	.
2G	2B-	2g	.
=3	=3	=3	=3
1D	0A	2f	2r
.	.	2f	1a
2r	.	2e	.
[2A	.	[2a	2a
=4	=4	=4	=4
2A]	0r	2a]	2cc
2A	.	2a	2cc
2B-	.	2g	1dd
2G	.	2g	.
=5	=5	=5	=5
1d	2r	1f	0a
.	2d	.	.
1A	2d	1e	.
.	2c#	.	.
=6	=6	=6	=6
2r	4d	1a	2r
.	4e	.	.
2D	4f	.	2dd
.	4d	.	.
2A	1e	2a	2dd
2A	.	2a	2cc#
=7	=7	=7	=7
2D	1d	2f	2.dd
2.d	.	2.f	.
.	.	.	8cc
.	.	.	8b-
.	1r	.	[1a
4d	.	4f	.
2c#	.	2e	.
=8	=8	=8	=8
2d	2r	2f	0a]
2d	1d	2f	.
1A	.	1e	.
.	2c#	.	.
=9	=9	=9	=9
2r	2d	2r	2r
1D	2d	1f	1dd
.	1A	.	.
2A	.	2e	2cc#
=10	=10	=10	=10
2D	2r	2f	2dd
2D	2f	2d	2dd
4F	2f	2c	1a
4G	.	.	.
4A	2f	[2cc	.
4B-	.	.	.
=11	=11	=11	=11
2c	2e	2cc]	2r
2d	4d	1a	2ff
.	4e	.	.
2d	4f	.	2ff
.	4g	.	.
2d	4a	2f	2ff
.	4f	.	.
=12	=12	=12	=12
2c	2.g	2cc	2ee
2G	.	2b-	1dd
.	4f	.	.
1A	1e	[1a	.
.	.	.	2cc#
=13	=13	=13	=13
1D	1d	1a]	1dd
2r	2r	2r	2r
[2A	[2e	[2a	[2cc
=14	=14	=14	=14
4A]	4e]	4a]	4cc]
4A	4e	4a	4cc
2A	2e	2a	2cc
2G	2g	2b-	2dd
2A	2c	2a	2ff
=15	=15	=15	=15
2B-	2d	2g	2ff
2c	2e	2g	2ee
2F	2c	1a	[1ff
2F	[2c	.	.
=16	=16	=16	=16
2F	2c]	2r	1ff]
2F	2c	1f	.
2B-	2d	.	2r
2F	[2f	2f	[2cc
=17	=17	=17	=17
1c	2f]	2.g	2cc]
.	2e	.	2cc
.	.	4a	.
2B-	2d	2b-	2dd
2F	[2c	2a	2ff
=18	=18	=18	=18
1G	2c]	2.g	2ee
.	2B-	.	2dd
.	.	4f	.
2A	2c	2e	2cc
2B-	2G	2d	[2dd
=19	=19	=19	=19
2A	2c	2e	4dd]
.	.	.	4cc
2A	2c	2f	1cc
1G	1d	2.g	.
.	.	.	2b
.	.	4f	.
=20	=20	=20	=20
2C	1c	0e	2.cc
2.C	.	.	.
.	.	.	8b-
.	.	.	8a
.	2r	.	1g
4C	.	.	.
2C	[2c	.	.
=21	=21	=21	=21
2.F	4c]	0r	0a
.	4c	.	.
.	2c	.	.
4E	.	.	.
2D	2.f	.	.
2F	.	.	.
.	4e	.	.
=22	=22	=22	=22
2G	2d	0r	0r
2.B-	2d	.	.
.	2c	.	.
4A	.	.	.
[2A	2c	.	.
=23	=23	=23	=23
2A]	1B-	1r	0r
2G	.	.	.
[1A	2A	2r	.
.	[2c	[2e	.
=24	=24	=24	=24
1A]	2c]	2e]	2r
.	2c	2e	1cc
[1F	2.f	1a	.
.	.	.	2cc
.	4e	.	.
=25	=25	=25	=25
2F]	2d	1a	2.ff
2F	2c	.	.
.	.	.	4ee
1B-	2d	2f	1dd
.	2B-	[2g	.
=26	=26	=26	=26
2A	2c	4g]	2cc
.	.	4f	.
2F	1d	1f	2a
2G	.	.	2b-
2G	4c	2e	2b-
.	4B-	.	.
=27	=27	=27	=27
1F	1A	[0f	0a
2r	2r	.	.
[2F	[2A	.	.
=28	=28	=28	=28
4F]	4A]	1f]	1r
4F	4A	.	.
2F	2A	.	.
2E	2c	2r	2r
2D	2d	[2f	[2a
=29	=29	=29	=29
2.F	1.c	4f]	4a]
.	.	4f	4a
.	.	2f	2a
4G	.	.	.
2A	.	2e	2cc
2B-	2B-	2d	2dd
=30	=30	=30	=30
1F	1A	2.f	1cc
.	.	4g	.
1r	2A	2a	2cc
.	4G	2b-	4dd
.	4A	.	4cc
=31	=31	=31	=31
0r	4B-	4b-	4dd
.	4c	4a	4ee
.	2d	4a	1ff
.	.	8g	.
.	.	8f	.
.	1c	1g	.
.	.	.	2ee
=32	=32	=32	=32
1r	2F	1a	1ff
.	1f	.	.
[1A	.	[1a	[1cc
.	4e	.	.
.	4d	.	.
=33	=33	=33	=33
1A]	2e	1a]	1cc]
.	1f	.	.
1c	.	1g	1cc
.	[2e	.	.
=34	=34	=34	=34
1d	4e]	1f	1a
.	4d	.	.
.	1d	.	.
1A	.	1e	1a
.	2c#	.	.
=35	=35	=35	=35
2r	2.d	2r	2r
2.D	.	2.a	2.ff
.	8c	.	.
.	8B-	.	.
.	1A	.	.
4D	.	4a	4ff
2F	.	2a	2ff
=36	=36	=36	=36
2C	2r	2g	2ee
2D	2.f	2f	1dd
2.F	.	[1a	.
.	4f	.	.
.	2f	.	[2cc
4G	.	.	.
=37	=37	=37	=37
2A	2e	2a]	2cc]
2B-	1d	4g	1b-
.	.	4f	.
2G	.	2g	.
2A	[2f	2c	[2a
=38	=38	=38	=38
1B-	4f]	1d	4a]
.	4e	.	4g
.	1d	.	4g
.	.	.	8f
.	.	.	8g
1A	.	1e	1a
.	2c#	.	.
=39	=39	=39	=39
2r	1d	2r	[0a
2d	.	2f	.
2d	1A	2f	.
2c#	.	[2e	.
=40	=40	=40	=40
1d	2r	2e]	0a]
.	2f	1d	.
1A	2f	.	.
.	[2e	2c	.
=41	=41	=41	=41
2.D	2e]	2.f	2r
.	1d	.	2ff
4E	.	4g	.
4F	.	1a	2ff
4G	.	.	.
2A	2c#	.	[2ee
=42	=42	=42	=42
2B-	1d	2f	4ee]
.	.	.	4dd
2B-	.	2g	1dd
1A	1e	1a	.
.	.	.	2cc#
=43	=43	=43	=43
0D	0d	0a	0dd
=44	=44	=44	=44
1A	1r	0r	0r
2A	2r	.	.
2A	2A	.	.
=45	=45	=45	=45
1F	2A	0r	0r
.	2A	.	.
2E	1c	.	.
2E	.	.	.
=46	=46	=46	=46
2.D	2d	1a	1r
.	2d	.	.
4E	.	.	.
4F	4A	2a	2r
4G	4B-	.	.
2A	4c	2a	2a
.	8B-	.	.
.	8c	.	.
=47	=47	=47	=47
1D	1d	1f	2a
.	.	.	2a
2r	1A	2e	1cc
2A	.	2e	.
=48	=48	=48	=48
2B-	2r	2.d	2dd
2.d	2f	.	2dd
.	.	4e	.
.	2f	4f	1a
4c	.	4g	.
4A	2f	[2a	.
4B-	.	.	.
=49	=49	=49	=49
2c	2e	4a]	0a
.	.	4g	.
2d	1d	2f	.
1A	.	1e	.
.	2c#	.	.
=50	=50	=50	=50
2D	2.d	0a	2r
2d	.	.	2ff
.	4e	.	.
2d	4f	.	2ff
.	4g	.	.
2d	[2a	.	2ff
=51	=51	=51	=51
2c#	4a]	1r	2ee
.	4g	.	.
2d	2f	.	1dd
1A	1e	2r	.
.	.	2a	2cc#
=52	=52	=52	=52
2r	1d	2a	1dd
2d	.	2a	.
2d	2r	2.f	2r
2d	2d	.	2dd
.	.	4e	.
=53	=53	=53	=53
1B-	2d	4d	2dd
.	.	4e	.
.	2d	4f	2dd
.	.	4g	.
2A	1f	2a	1cc
2A	.	2a	.
=54	=54	=54	=54
0G	2g	2d	2b-
.	2g	2.b-	2g
.	1d	.	1b-
.	.	4a	.
.	.	[2g	.
=55	=55	=55	=55
1D	1d	2g]	1a
.	.	2f#	.
[1G	2r	2r	[1b
.	[2d	[2g	.
=56	=56	=56	=56
2G]	2d]	2g]	2b]
2C	2e	2g	2cc
[1C	2e	4g	1cc
.	.	4f	.
.	[2c	4e	.
.	.	4d	.
=57	=57	=57	=57
1C]	2c]	2.e	2r
.	2c	.	1cc
.	.	8f	.
.	.	8g	.
2r	2.f	1a	.
[2F	.	.	2cc
.	4e	.	.
=58	=58	=58	=58
2F]	2d	2r	2.ff
2F	2c	1f	.
.	.	.	4ee
2.B-	2d	.	2dd
.	2d	2f	2ff
4A	.	.	.
=59	=59	=59	=59
2G	2.g	2.b-	2ee
2B-	.	.	2.dd
.	4f	4a	.
2c	2e	2g	.
.	.	.	4cc
2A	4d	2f	[2cc
.	4c	.	.
=60	=60	=60	=60
0G	0d	0g	2cc]
.	.	.	4b
.	.	.	4a
.	.	.	1b
=61	=61	=61	=61
0C	1e	2g	1cc
.	.	2g	.
.	2r	1cc	1r
.	2c	.	.
=62	=62	=62	=62
0r	1f	1.a	1cc
.	1d	.	1ff
.	.	2f	.
=63	=63	=63	=63
0r	1r	2g	2dd
.	.	2a	2cc
.	2r	2b-	2dd
.	2c	4a	2ee
.	.	4g	.
=64	=64	=64	=64
0r	2d	2f	2ff
.	2e	4cc	4ee
.	.	4b-	4dd
.	4f	4a	2cc
.	4e	4g	.
.	4d	4f	[2dd
.	4c	4e	.
=65	=65	=65	=65
0r	2B-	1f	4dd]
.	.	.	4ee
.	2d	.	1ff
.	1c	1g	.
.	.	.	2ee
=66	=66	=66	=66
0F	2r	1a	1ff
.	2c	.	.
.	2c	2r	2r
.	[2f	[2a	[2cc
=67	=67	=67	=67
1A	2f]	2a]	2cc]
.	2e	2a	2cc
1B-	1d	2.f	[1ff
.	.	4g	.
=68	=68	=68	=68
1A	4c	4a	2ff]
.	4d	4b-	.
.	4e	2cc	2ee
.	4f	.	.
1B-	4g	2b-	1dd
.	4f	.	.
.	[2f	2a	.
=69	=69	=69	=69
0c	2f]	1g	[0cc
.	4e	.	.
.	4d	.	.
.	1e	2r	.
.	.	[2g	.
=70	=70	=70	=70
2.c	2r	2g]	1cc]
.	1c	2g	.
4c	.	.	.
2F	.	2a	1r
2A	2c	2cc	.
=71	=71	=71	=71
2G	2d	2b-	1r
2F	2f	2a	.
1c	2f	1g	2r
.	2e	.	[2cc
=72	=72	=72	=72
1F	2.f	1.a	2cc]
.	.	.	2cc
.	4e	.	.
1r	1d	.	2dd
.	.	4g	2ff
.	.	4f	.
=73	=73	=73	=73
1r	0c	1g	2ff
.	.	.	2ee
1F	.	1a	2.ff
.	.	.	4ee
=74	=74	=74	=74
2G	1r	2b-	1dd
2B-	.	2g	.
4A	2r	1a	1cc
4B-	.	.	.
4c	2c	.	.
4A	.	.	.
=75	=75	=75	=75
2.B-	2d	2r	0r
.	2f	2f	.
4A	.	.	.
2G	2f	2g	.
2G	2e	2b-	.
=76	=76	=76	=76
1F	1f	4a	2r
.	.	4b-	.
.	.	4cc	2cc
.	.	4a	.
1r	1d	2.b-	2dd
.	.	.	2ff
.	.	4a	.
=77	=77	=77	=77
2r	1c	2g	2ff
2c	.	2g	2ee
1d	2r	1f	1ff
.	2f	.	.
=78	=78	=78	=78
1c	1e	2r	2r
.	.	2g	2cc
1B-	2f	1b-	1dd
.	[2f	.	.
=79	=79	=79	=79
1.f	2f]	2.a	2cc
.	1a	.	2cc
.	.	4g	.
.	.	2f	2dd
2e	2g	2g	2ee
=80	=80	=80	=80
1d	1f	2a	1ff
.	.	2b	.
[1c	[1g	1cc	[1ee
=81	=81	=81	=81
1c]	2g]	1cc	1ee]
.	1a	.	.
1d	.	1a	1ff#
.	[2d	.	.
=82	=82	=82	=82
0G	4d]	0b-	2.gg
.	8e	.	.
.	8f	.	.
.	1g	.	.
.	.	.	4ff
.	.	.	4ee
.	.	.	4dd
.	2f	.	[2dd
=83	=83	=83	=83
0A	0e	0a	2dd]
.	.	.	4cc#
.	.	.	4b
.	.	.	1cc#
=84	=84	=84	=84
0D	2d	2r	0dd
.	2d	2a	.
.	2.f	2.a	.
.	4e	4g	.
=85	=85	=85	=85
2r	2d	2a	0r
2D	2d	1b-	.
2F	2c	.	.
2F	4B-	[2a	.
.	4A	.	.
=86	=86	=86	=86
2G	2B-	2a]	2r
2G	2B-	2g	2dd
2D	1A	2.a	2.ff
2D	.	.	.
.	.	4g	4ee
=87	=87	=87	=87
2B-	2r	4f	2dd
.	.	4d	.
2B-	2G	2.g	2dd
2A	2c	.	2cc
.	.	4f	.
4G	2d	[2f	4b-
4F	.	.	4a
=88	=88	=88	=88
2G	2B-	2f]	2b-
2G	2B-	2e	2b-
1F	2c	1f	[1a
.	2c	.	.
=89	=89	=89	=89
2r	2c	2r	1a]
2F	2c	2a	.
2F	2A	2a	1r
2F	[2f	2a	.
=90	=90	=90	=90
1D	2f]	1f	2r
.	1d	.	2a
1A	.	1e	2a
.	2c#	.	2a
=91	=91	=91	=91
2D	2d	2d	2f
4D	1f	2a	4f
4E	.	.	4g
4F	.	2a	4a
4G	.	.	4b-
2A	2e	2a	2cc
=92	=92	=92	=92
2B-	1d	2f	2dd
1d	.	4f	1ff
.	.	4g	.
.	2f	4a	.
.	.	4b-	.
2c	[2g	2cc	2ee
=93	=93	=93	=93
2G	4g]	2b-	1dd
.	4f	.	.
2B-	2d	2g	.
1A	1e	2a	2.cc
.	.	[2cc	.
.	.	.	4dd
=94	=94	=94	=94
1G	2.g	2cc]	2ee
.	.	2b-	1dd
.	4f	.	.
1A	1e	1a	.
.	.	.	2cc#
=95	=95	=95	=95
0D	0d	0a	0dd
==	==	==	==
*-	*-	*-	*-
!!!CDT: 1525/^1526/-1594/2/2
!!!OCY: Italia
!!!AGN: Mass (Parody)
!!!AST: renaissance, vocal
!!!ASW: Chanson 1533 (Lupi or Cadéac)
!!!PWK: Masses, Book 6
!!!RNB: Cadence finals: F
!!!YOR: Le Opere Complete, v. 21, p. 52
!!!YOO: Rome, Italy: Fratelli Scalera
!!!END: 1992//
!!!EED: John Miller
!!!YEC: Copyright 2000, John Miller
!!!YEN: United States of America
!!!YEM: Rights to all derivative electronic formats reserved.
!!!YEM: Refer to licensing agreement for further details.
!!!YEM: This file must be accompanied by the licensing agreement.
!!!YEM: A copy of the licensing agreement may be found at http://www.music-cog.ohio-state.edu/HumdrumDatabases/Palestrina/license.txt
!!!EMD: converted to Humdrum by Bret Aarden
